public/library/deus-finance-icon-dark.svg

<svg xmlns="http://www.w3.org/2000/svg" width="1500" height="1500" fill="none" viewBox="0 0 1500 1500"><path fill="#000" d="M1500 750c0 414.21-335.79 750-750 750-414.214 0-750-335.79-750-750C0 335.786 335.786 0 750 0c414.21 0 750 335.786 750 750"/><path stroke="url(#a)" d="M1500 750c0 414.21-335.79 750-750 750-414.214 0-750-335.79-750-750C0 335.786 335.786 0 750 0c414.21 0 750 335.786 750 750Z"/><path fill="url(#b)" d="M750.325 110 110 749.327 750.711 1389 1390 750.181zM1240 717.847l-156.1 18.108a97.26 97.26 0 0 0-47.81-36.711 97.3 97.3 0 0 0-60.269-1.497L846.638 568.573a99 99 0 0 0 .895-12.58 97.42 97.42 0 0 0-55.109-87.715V270.37zM708.633 270.37v197.318a97.56 97.56 0 0 0-40.918 35.948 97.5 97.5 0 0 0-15.268 52.275 95 95 0 0 0 1.057 13.495L525.012 697.869a97.6 97.6 0 0 0-60.609 1.161 97.57 97.57 0 0 0-48.226 36.721l-155.121-17.945zM284.819 804.911l117.901 13.678a97.55 97.55 0 0 0 35.096 50.592 97.58 97.58 0 0 0 58.412 19.502h.163l113.835 241.687zm465.71 426.439L572.193 852.549a97.195 97.195 0 0 0 14.616-97.978l114.323-114.298a96.924 96.924 0 0 0 98.387-.406l113.937 113.931a97.53 97.53 0 0 0 15.022 99.584zm140.058-100.98 113.833-241.727a97.57 97.57 0 0 0 57.85-19.697 97.56 97.56 0 0 0 34.79-50.235l119.08-13.8z"/><defs><linearGradient id="a" x1="750" x2="750" y1="1496.02" y2="13.133" gradientUnits="userSpaceOnUse"><stop stop-color="#00b1ff"/><stop offset=".93" stop-color="#00f5e4"/></linearGradient><linearGradient id="b" x1="750" x2="750" y1="1385.61" y2="121.198" gradientUnits="userSpaceOnUse"><stop stop-color="#00b1ff"/><stop offset=".93" stop-color="#00f5e4"/></linearGradient></defs></svg>

<svg width="1500" height="1500" viewBox="0 0 1500 1500" fill="none" xmlns="http://www.w3.org/2000/svg">
<path d="M1500 750C1500 1164.21 1164.21 1500 750 1500C335.786 1500 0 1164.21 0 750C0 335.786 335.786 0 750 0C1164.21 0 1500 335.786 1500 750Z" fill="black"/>
<path d="M1500 750C1500 1164.21 1164.21 1500 750 1500C335.786 1500 0 1164.21 0 750C0 335.786 335.786 0 750 0C1164.21 0 1500 335.786 1500 750Z" stroke="url(#paint0_linear_9957_15590)"/>
<path d="M750.325 110L110 749.327L750.711 1389L1390 750.181L750.325 110ZM1240 717.847L1083.9 735.955C1072.26 718.965 1055.51 706.111 1036.09 699.244C1016.67 692.378 995.563 691.854 975.821 697.747L846.638 568.573C847.204 564.403 847.503 560.201 847.533 555.993C847.526 537.671 842.351 519.722 832.604 504.207C822.856 488.691 808.93 476.239 792.424 468.278V270.37L1240 717.847ZM708.633 270.37V467.688C691.857 475.544 677.664 488.013 667.715 503.636C657.765 519.258 652.469 537.39 652.447 555.911C652.479 560.429 652.832 564.939 653.504 569.406L525.012 697.869C505.198 691.813 483.97 692.219 464.403 699.03C444.836 705.841 427.945 718.702 416.177 735.751L261.056 717.806L708.633 270.37ZM284.819 804.911L402.72 818.589C408.649 838.798 420.961 856.547 437.816 869.181C454.67 881.816 475.162 888.657 496.228 888.683H496.391L610.226 1130.37L284.819 804.911ZM750.529 1231.35L572.193 852.549C583.19 839.027 590.35 822.798 592.921 805.561C595.492 788.324 593.381 770.712 586.809 754.571L701.132 640.273C716.074 648.993 733.079 653.554 750.381 653.482C767.682 653.411 784.649 648.709 799.519 639.867L913.456 753.798C906.663 770.193 904.472 788.131 907.119 805.678C909.766 823.226 917.151 839.719 928.478 853.382L750.529 1231.35ZM890.587 1130.37L1004.42 888.643C1025.32 888.44 1045.6 881.535 1062.27 868.946C1078.95 856.357 1091.14 838.748 1097.06 818.711L1216.14 804.911L890.587 1130.37Z" fill="url(#paint1_linear_9957_15590)"/>
<defs>
<linearGradient id="paint0_linear_9957_15590" x1="750" y1="1496.02" x2="750" y2="13.1331" gradientUnits="userSpaceOnUse">
<stop stop-color="#00B1FF"/>
<stop offset="0.93" stop-color="#00F5E4"/>
</linearGradient>
<linearGradient id="paint1_linear_9957_15590" x1="750" y1="1385.61" x2="750" y2="121.198" gradientUnits="userSpaceOnUse">
<stop stop-color="#00B1FF"/>
<stop offset="0.93" stop-color="#00F5E4"/>
</linearGradient>
</defs>
</svg>
